src/assets/img/control-prev-white.svg

<svg fill="none" height="800" viewBox="0 0 24 24" width="800" xmlns="http://www.w3.org/2000/svg"><path clip-rule="evenodd" d="m12.8567 11.4931 7.5476-4.35762c.6667-.3849 1.5.09623 1.5.86603v9.07269c0 .7698-.8333 1.2509-1.5.866l-7.5476-4.3576v3.4916c0 .7698-.8334 1.2509-1.5.866l-7.85717-4.5363c-.66666-.3849-.66666-1.3472 0-1.7321l7.85717-4.53631c.6666-.3849 1.5.09623 1.5.86603z" fill="#fff" fill-rule="evenodd"/></svg>

<?xml version="1.0" encoding="utf-8"?><!-- Uploaded to: SVG Repo, www.svgrepo.com, Generator: SVG Repo Mixer Tools -->
<svg width="800px" height="800px" viewBox="0 0 24 24" fill="none" xmlns="http://www.w3.org/2000/svg">
<path fill-rule="evenodd" clip-rule="evenodd" d="M12.8567 11.4931L20.4043 7.13548C21.071 6.75058 21.9043 7.23171 21.9043 8.00151L21.9043 17.0742C21.9043 17.844 21.071 18.3251 20.4043 17.9402L12.8567 13.5826L12.8567 17.0742C12.8567 17.844 12.0233 18.3251 11.3567 17.9402L3.49953 13.4039C2.83287 13.019 2.83287 12.0567 3.49953 11.6718L11.3567 7.13549C12.0233 6.75059 12.8567 7.23172 12.8567 8.00152L12.8567 11.4931Z" fill="#FFFFFF"/>
</svg>
